components/icon/combined/Checkmark200.svg

<svg xmlns="http://www.w3.org/2000/svg" id="Checkmark200"><path d="M4.8911,13.2241A1.304,1.304,0,0,1,3.8857,12.75L.3467,8.4507A1.3022,1.3022,0,0,1,2.3574,6.7954L4.8647,9.8413l6.7583-8.647a1.3017,1.3017,0,1,1,2.0508,1.6036L5.917,12.7236a1.3012,1.3012,0,0,1-1.0093.5Z" class="spectrum-UIIcon--large"/><path d="M4.313,10.98a1.0415,1.0415,0,0,1-.8-.375L.6465,7.1646A1.0415,1.0415,0,0,1,2.2471,5.8315l2.042,2.4507L9.7324,1.3535a1.0419,1.0419,0,0,1,1.6387,1.2871L5.1318,10.5815a1.0407,1.0407,0,0,1-.8037.398Z" class="spectrum-UIIcon--medium"/></svg>

<svg xmlns="http://www.w3.org/2000/svg" id="Checkmark200"><path d="M4.891 13.224a1.304 1.304 0 01-1.005-.474l-3.54-4.3a1.302 1.302 0 012.011-1.655l2.508 3.046 6.758-8.647a1.302 1.302 0 112.05 1.604l-7.756 9.926a1.301 1.301 0 01-1.01.5z" class="spectrum-UIIcon--large"/><path d="M4.313 10.98a1.042 1.042 0 01-.8-.375L.647 7.165a1.042 1.042 0 011.6-1.333l2.042 2.45 5.443-6.928a1.042 1.042 0 011.64 1.287l-6.24 7.94a1.04 1.04 0 01-.804.399z" class="spectrum-UIIcon--medium"/></svg>
